X:118
T:Reels simple chords 336
M:3/4
L:1/8
K:D
AG [F2D,2F,2A,2] A2 | A4 [G2G,2B,2D2] | B2 B4 | [cA,CEG]c c2 B2 | c2 [d2D,2F,2A,2] e2 |
f4 [F2D,2F,2A,2] | A2 A4 | [G2G,2B,2D2] B2 B4 | [cA,CEG]c c2 |
B2 c2 [e2D,2F,2A,2] | d2 d2 AG | [F2D,2F,2A,2] A2 A4 | [G2G,2B,2D2] B2 |
B4 [cA,CEG]c | c2 B2 c2 | [d2D,2F,2A,2] e2 f4 | [F2D,2F,2A,2] A2 |
A4 [G2G,2B,2D2] | B2 B4 | [cA,CEG]c c2 B2 | c2 [e2D,2F,2A,2] d2 |
d2 AG [F2D,2F,2A,2] | A2 A4 | [G2G,2B,2D2] B2 B4 | [cA,CEG]c c2 |
B2 c2 [d2D,2F,2A,2] | e2 f4 | [F2D,2F,2A,2] A2 A4 | [G2G,2B,2D2] B2 |
B4 [cA,CEG]c | c2 B2 c2 | [e2D,2F,2A,2] d2 d2 | AG [F2D,2F,2A,2] A2 |
A4 [G2G,2B,2D2] | B2 B4 | [cA,CEG]c c2 B2 | c2 [d2D,2F,2A,2] e2 |
f4 [F2D,2F,2A,2] | A2 A4 | [G2G,2B,2D2] B2 B4 | [cA,CEG]c c2 |
B2 c2 [e2D,2F,2A,2] | d2 d2 de | [f2D,2F,2A,2] d2 A2 | F2 [G2G,2B,2D2] B2 |
B4 [cA,CEG]c | c2 B2 c2 | [d2D,2F,2A,2] e2 f2 | de [f2D,2F,2A,2] d2 |
A2 F2 [G2G,2B,2D2] | B2 B4 | [cA,CEG]c c2 B2 | c2 [e2D,2F,2A,2] d2 |
d2 AG [F2D,2F,2A,2] | A2 A4 | [G2G,2B,2D2] B2 B4 | [cA,CEG]c c2 |
B2 c2 [d2D,2F,2A,2] | e2 f4 | [F2D,2F,2A,2] A2 A4 | [G2G,2B,2D2] B2 |
B4 [cA,CEG]c | c2 B2 c2 | [e2D,2F,2A,2] d2 d2 | AG [F2D,2F,2A,2] A2 |
A4 [G2G,2B,2D2] | B2 B4 | [cA,CEG]c c2 B2 | c2 [d2D,2F,2A,2] e2 |
f4 [F2D,2F,2A,2] | A2 A4 | [G2G,2B,2D2] B2 B4 | [cA,CEG]c c2 |
B2 c2 [e2D,2F,2A,2] | d2 d2 de | [f2D,2F,2A,2] d2 A2 | F2 [G2G,2B,2D2] B2 |
B4 [cA,CEG]c | c2 B2 c2 | [d2D,2F,2A,2] e2 f2 | de [f2D,2F,2A,2] d2 |
A2 F2 [G2G,2B,2D2] | B2 B4 | [cA,CEG]c c2 B2 | c2 [e2D,2F,2A,2] d2 |
d2 AG [F2D,2F,2A,2] | A2 A4 | [G2G,2B,2D2] B2 B4 | [cA,CEG]c c2 |
B2 c2 [d2D,2F,2A,2] | e2 f4 | [F2D,2F,2A,2] A2 A4 | [G2G,2B,2D2] B2 |
B4 [cA,CEG]c | c2 B2 c2 | [e2D,2F,2A,2] d2 d2 | AG [F2D,2F,2A,2] A2 |
A4 [G2G,2B,2D2] | B2 B4 | [cA,CEG]c c2 B2 | c2 [d2D,2F,2A,2] e2 |
f4 [F2D,2F,2A,2] | A2 A4 | [G2G,2B,2D2] B2 B4 | [cA,CEG]c c2 |
B2 c2 [e2D,2F,2A,2] | d2 d2 de | [f2D,2F,2A,2] d2 A2 | F2 [G2G,2B,2D2] B2 |
B4 [cA,CEG]c | c2 B2 c2 | [d2D,2F,2A,2] e2 f2 | de [f2D,2F,2A,2] d2 |
A2 F2 [G2G,2B,2D2] | B2 B4 | [cA,CEG]c c2 B2 | c2 [e2D,2F,2A,2] d2 |
d2 AG [F2D,2F,2A,2] | A2 A4 | [G2G,2B,2D2] B2 B4 | [cA,CEG]c c2 |
B2 c2 [d2D,2F,2A,2] | e2 f4 | [F2D,2F,2A,2] A2 A4 | [G2G,2B,2D2] B2 |
B4 [cA,CEG]c | c2 B2 c2 | [e2D,2F,2A,2] d2 d2 | AG [F2D,2F,2A,2] A2 |
A4 [G2G,2B,2D2] | B2 B4 | [cA,CEG]c c2 B2 | c2 [d2D,2F,2A,2] e2 |
f4 [F2D,2F,2A,2] | A2 A4 | [G2G,2B,2D2] B2 B4 | [cA,CEG]c c2 |
B2 c2 [e2D,2F,2A,2] | d2 d2 |


